src/assets/filled/UserTick.svg

<svg width="24" height="24" viewBox="0 0 24 24"  xmlns="http://www.w3.org/2000/svg">
<path d="M11.9999 14C6.98991 14 2.90991 17.36 2.90991 21.5C2.90991 21.78 3.12991 22 3.40991 22H20.5899C20.8699 22 21.0899 21.78 21.0899 21.5C21.0899 17.36 17.0099 14 11.9999 14Z" />
<path d="M12 2C10.82 2 9.74 2.41 8.88 3.1C7.73 4.01 7 5.42 7 7C7 7.94 7.26 8.82 7.73 9.57C8.59 11.02 10.17 12 12 12C13.26 12 14.41 11.54 15.29 10.75C15.68 10.42 16.02 10.02 16.28 9.57C16.74 8.82 17 7.94 17 7C17 4.24 14.76 2 12 2ZM14.59 6.46L11.92 8.92C11.74 9.09 11.51 9.17 11.28 9.17C11.04 9.17 10.8 9.08 10.62 8.9L9.39 7.66C9.02 7.29 9.02 6.7 9.39 6.33C9.76 5.96 10.35 5.96 10.72 6.33L11.31 6.92L13.32 5.07C13.7 4.72 14.29 4.74 14.64 5.12C14.99 5.51 14.97 6.11 14.59 6.46Z" />
</svg>

<?xml version="1.0" encoding="UTF-8"?>
<svg width="24" height="24" viewBox="0 0 24 24" xmlns="http://www.w3.org/2000/svg">
 <path d="m12 14c-5.01 0-9.09 3.36-9.09 7.5 0 0.28 0.22 0.5 0.5 0.5h17.18c0.28 0 0.5-0.22 0.5-0.5 0-4.14-4.08-7.5-9.09-7.5z"/>
 <path d="m12 2c-1.18 0-2.26 0.41-3.12 1.1-1.15 0.91-1.88 2.32-1.88 3.9 0 0.94 0.26 1.82 0.73 2.57 0.86 1.45 2.44 2.43 4.27 2.43 1.26 0 2.41-0.46 3.29-1.25 0.39-0.33 0.73-0.73 0.99-1.18 0.46-0.75 0.72-1.63 0.72-2.57 0-2.76-2.24-5-5-5zm2.59 4.46-2.67 2.46c-0.18 0.17-0.41 0.25-0.64 0.25-0.24 0-0.48-0.09-0.66-0.27l-1.23-1.24c-0.37-0.37-0.37-0.96 0-1.33s0.96-0.37 1.33 0l0.59 0.59 2.01-1.85c0.38-0.35 0.97-0.33 1.32 0.05 0.35 0.39 0.33 0.99-0.05 1.34z"/>
</svg>
